dist/img/ic-tel.svg

<svg width="24" height="24" viewBox="0 0 24 24" fill="none" xmlns="http://www.w3.org/2000/svg">
<g clip-path="url(#clip0)">
<path d="M22.0742 15.7533C20.6049 15.7533 19.1621 15.5234 17.7949 15.0716C17.125 14.8431 16.3014 15.0528 15.8926 15.4727L13.194 17.5098C10.0644 15.8393 8.13669 13.9121 6.48894 10.8061L8.46612 8.17781C8.97981 7.66481 9.16406 6.91544 8.94331 6.21231C8.48956 4.83794 8.25906 3.39587 8.25906 1.92587C8.25913 0.863937 7.39519 0 6.33331 0H1.92581C0.863937 0 0 0.863937 0 1.92581C0 14.0977 9.90237 24 22.0742 24C23.1361 24 24.0001 23.1361 24.0001 22.0742V17.679C24 16.6172 23.1361 15.7533 22.0742 15.7533Z" fill="#CCB69F"/>
</g>
<defs>
<clipPath id="clip0">
<rect width="24" height="24" fill="white"/>
</clipPath>
</defs>
</svg>

<svg width="24" height="24" viewBox="0 0 24 24" xmlns="http://www.w3.org/2000/svg"><g clip-path="url(#clip0)"><path d="M22.074 15.753c-1.47 0-2.912-.23-4.28-.681-.669-.229-1.493-.02-1.901.4l-2.699 2.038c-3.13-1.67-5.057-3.598-6.705-6.704l1.977-2.628a1.94 1.94 0 00.477-1.966 13.647 13.647 0 01-.684-4.286A1.928 1.928 0 006.333 0H1.926A1.928 1.928 0 000 1.926C0 14.098 9.902 24 22.074 24A1.928 1.928 0 0024 22.074V17.68a1.928 1.928 0 00-1.926-1.926z"/></g><defs><clipPath id="clip0"><path d="M0 0h24v24H0z"/></clipPath></defs></svg>
